static/img/navbar/questdb.svg

<svg width="95" height="24" viewBox="0 0 95 24" fill="none" xmlns="http://www.w3.org/2000/svg">
<g clip-path="url(#clip0)">
<path d="M37.8025 17.1935L38.6765 18.4979C38.7126 18.548 38.734 18.6075 38.7381 18.6695C38.7381 18.7775 38.6302 18.8243 38.5081 18.8243H37.3222C37.2632 18.8291 37.2039 18.8208 37.1484 18.8001C37.093 18.7793 37.0426 18.7467 37.0008 18.7043C37.0008 18.7043 36.2893 18.0683 35.5125 17.3843C32.8573 17.1815 31.1082 15.5363 31.1082 11.9183C31.1082 8.45508 33.1336 6.70068 36.0794 6.70068C39.0571 6.70068 41.0518 8.45508 41.0518 11.9183C41.0554 15.1283 39.6892 16.6667 37.8025 17.1935ZM36.0984 7.97028C34.227 7.97028 32.849 8.91708 32.849 11.9759C32.849 15.2531 34.1998 16.0451 36.1019 16.0451C38.0041 16.0451 39.3406 15.2531 39.3406 11.9759C39.337 8.90148 37.9246 7.97028 36.0984 7.97028Z" fill="white"/>
<path d="M50.0444 17.0398C49.1075 17.1946 47.7912 17.413 46.7239 17.413C44.1149 17.413 42.7334 16.5274 42.7334 13.8718V8.60742C42.7309 8.58633 42.7332 8.56495 42.7401 8.54488C42.7469 8.52481 42.7582 8.50658 42.7731 8.49156C42.7879 8.47654 42.8059 8.46513 42.8258 8.45818C42.8456 8.45122 42.8667 8.44891 42.8876 8.45142H44.192C44.2988 8.45142 44.3604 8.49822 44.3604 8.59182V13.9486C44.3604 15.4702 45.0814 16.0762 46.6468 16.0762C47.2303 16.0762 47.905 16.0294 48.4256 15.9826C48.5181 15.967 48.5798 15.9358 48.5798 15.8278V8.59182C48.5798 8.48262 48.6095 8.45142 48.7328 8.45142H50.0373C50.144 8.45142 50.2057 8.49822 50.2057 8.59182V16.837C50.2088 16.8611 50.2071 16.8857 50.2006 16.9091C50.1941 16.9325 50.183 16.9544 50.1679 16.9733C50.1528 16.9923 50.1341 17.0079 50.1129 17.0194C50.0916 17.0308 50.0683 17.0378 50.0444 17.0398Z" fill="white"/>
<path d="M60.3164 13.5755H53.902C53.8095 13.5755 53.7632 13.5911 53.7632 13.7315C53.8249 15.6875 55.1294 16.1231 57.0161 16.1231C57.7276 16.1231 58.5056 16.0607 59.3333 16.0031C59.395 16.0031 59.4721 16.0187 59.4721 16.1123V16.1435L59.3333 17.0903C59.3025 17.1983 59.2562 17.1983 59.1495 17.2295C58.2703 17.3603 57.383 17.4281 56.4943 17.4323C53.8712 17.4323 52.1066 16.3295 52.1066 12.8723C52.1066 9.53392 54.004 8.40112 56.3105 8.40112C59.1187 8.40112 60.454 9.98512 60.454 13.4315C60.454 13.5299 60.4077 13.5755 60.3164 13.5755ZM56.2192 9.63232C54.7143 9.63232 53.7478 10.4723 53.7478 12.1943C53.7478 12.3143 53.7787 12.3491 53.8866 12.3491H58.6431C58.7511 12.3491 58.8115 12.3335 58.8115 12.2099C58.7665 10.4699 57.7525 9.63232 56.2192 9.63232Z" fill="white"/>
<path d="M64.7493 17.4275C63.9107 17.4193 63.0741 17.341 62.2482 17.1935C62.1297 17.1623 62.0953 17.1323 62.0953 17.0231V16.0799C62.0953 16.048 62.1078 16.0175 62.13 15.995C62.1522 15.9725 62.1824 15.9599 62.2139 15.9599H62.2601C62.674 15.9755 63.6571 16.0535 64.4706 16.0535C65.5593 16.0535 66.8637 16.0067 66.8637 14.7959C66.8637 12.6995 62.0016 13.6463 62.0016 10.6499C62.0016 8.81746 63.899 8.38306 65.5593 8.38306C66.3464 8.40421 67.1311 8.48201 67.9073 8.61586C68.0152 8.64706 68.0757 8.70826 68.0757 8.78626L67.9227 9.68626C67.9227 9.74866 67.8765 9.79546 67.784 9.79546H67.7543C67.0255 9.71095 66.2928 9.66409 65.5593 9.65506C64.6544 9.65506 63.6263 9.70186 63.6263 10.6655C63.6263 12.3263 68.4754 11.5811 68.4754 14.6555C68.4813 16.6199 66.993 17.4275 64.7493 17.4275Z" fill="white"/>
<path d="M74.8044 17.1166C74.7736 17.209 74.7274 17.2366 74.6194 17.2558C74.0964 17.3371 73.5688 17.3852 73.0398 17.3998C71.5812 17.3998 70.9373 16.747 70.9373 15.1786V9.66218C70.9373 9.55418 70.891 9.50738 70.7843 9.50738H69.7395C69.6328 9.50738 69.5865 9.44498 69.5865 9.33698V8.59178C69.5865 8.49818 69.6328 8.45138 69.7395 8.45138H70.7973C70.8887 8.45138 70.9349 8.40578 70.9349 8.29658V6.25658C70.9349 6.14738 70.9657 6.10058 71.0879 6.06938L72.3924 5.93018C72.5003 5.93018 72.5607 5.97698 72.5607 6.08498V8.29658C72.5607 8.40578 72.5916 8.45138 72.7149 8.45138H74.3751C74.4937 8.45138 74.5293 8.49818 74.5293 8.60738V9.35258C74.5293 9.44498 74.4985 9.49178 74.3751 9.49178H72.7149C72.607 9.49178 72.5607 9.55418 72.5607 9.66218V14.7598C72.5607 15.6598 72.6995 16.033 73.851 16.033H74.7867C74.9242 16.033 74.9396 16.0954 74.9396 16.1878L74.8044 17.1166Z" fill="white"/>
<path d="M80.1753 17.3183H76.6307C76.5228 17.3183 76.4919 17.2871 76.4919 17.1623V6.92992C76.4919 6.80992 76.5382 6.75952 76.6307 6.75952H80.3899C83.1068 6.75952 85.3932 7.84672 85.3932 11.7131C85.3932 15.9983 83.0914 17.3183 80.1753 17.3183ZM80.467 7.98592H78.2874C78.1688 7.98592 78.119 8.04832 78.119 8.14072V15.8747C78.119 15.9827 78.1498 16.0295 78.272 16.0295H80.4979C82.3087 16.0295 83.7507 14.8643 83.7507 11.9495C83.7507 9.05752 82.4308 7.98592 80.467 7.98592Z" fill="white"/>
<path d="M91.6084 17.3183H87.2965C87.1898 17.3183 87.1589 17.2559 87.1589 17.1623V6.91432C87.1589 6.80632 87.2052 6.75952 87.3119 6.75952H91.2408C92.7445 6.75952 94.4177 7.37992 94.4177 9.32152C94.4177 10.8275 93.558 11.5259 92.9591 11.6507V11.7431C93.5271 11.8631 95 12.2411 95 14.3519C95 16.6511 93.0824 17.3183 91.6084 17.3183ZM90.6727 7.98592H88.9413C88.9179 7.98161 88.8937 7.98314 88.8709 7.99038C88.8482 7.99762 88.8275 8.01035 88.8107 8.02747C88.7939 8.0446 88.7815 8.06561 88.7745 8.08868C88.7675 8.11175 88.7661 8.1362 88.7706 8.15992V10.9823C88.7706 11.1023 88.8002 11.1539 88.9235 11.1539H90.9182C91.5479 11.1539 92.7753 10.9979 92.7753 9.53872C92.7753 8.14072 91.6855 7.98592 90.6727 7.98592ZM91.3131 12.3599H88.9235C88.8156 12.3599 88.7706 12.3911 88.7706 12.5147V15.8855C88.7706 15.9935 88.8156 16.0247 88.9235 16.0247H91.1767C92.2049 16.0247 93.3564 15.7607 93.3564 14.1923C93.3587 12.8771 92.4836 12.3599 91.3131 12.3599Z" fill="white"/>
<path d="M26.2507 21.2495L25.3601 20.5295C23.2825 18.5915 23.4307 15.9611 23.5445 14.9087C23.7024 13.5796 23.7207 12.2373 23.5991 10.9043C23.5611 10.5299 23.509 10.1567 23.4378 9.79192C23.3299 9.22912 22.8982 7.47112 22.4595 6.63232L20.4755 10.0643L19.994 10.8959L19.4271 11.8799C19.4529 12.9757 19.2438 14.064 18.814 15.0701C18.3842 16.0762 17.7441 16.976 16.9377 17.7078C16.1313 18.4395 15.1777 18.9857 14.1427 19.3088C13.1077 19.6318 12.0158 19.724 10.9421 19.5791L11.0394 19.7435L12.3439 22.0091L12.8372 22.8671L13.4017 23.8511C13.7147 23.8223 14.0349 23.7827 14.3622 23.7311C15.6054 23.4982 16.822 23.1384 17.9934 22.6571C18.5494 22.43 19.1273 22.2623 19.7177 22.1567C21.1668 21.9047 22.5271 22.1135 23.7284 22.7567C23.7904 22.7912 23.8597 22.8102 23.9304 22.8121C24.0012 22.814 24.0714 22.7987 24.1351 22.7675L26.1997 21.7199C26.241 21.6986 26.2764 21.6672 26.3028 21.6285C26.3291 21.5899 26.3455 21.5453 26.3506 21.4986C26.3556 21.452 26.3491 21.4048 26.3317 21.3613C26.3143 21.3179 26.2865 21.2794 26.2507 21.2495Z" fill="#D14671"/>
<path d="M8.14942 0.662319C6.9227 1.08263 5.77221 1.70323 4.74356 2.49952C3.66602 3.34073 2.73115 4.35401 1.97571 5.49952L8.02372 5.53072C8.94722 4.96598 9.98013 4.60922 11.0521 4.4847C12.1241 4.36019 13.2101 4.47085 14.236 4.80916C15.262 5.14747 16.2038 5.70548 16.9975 6.44521C17.7912 7.18494 18.418 8.08902 18.8354 9.09592L21.3459 4.74472C20.8131 4.02648 20.1968 3.37579 19.5102 2.80672C18.0741 1.61992 15.5968 0.166719 11.9466 0.00231875C11.9336 -8.12502e-05 10.2615 -0.0732813 8.14942 0.662319Z" fill="#D14671"/>
<path d="M8.12217 18.6C7.2023 18.0595 6.40667 17.3271 5.78819 16.4514C5.16972 15.5757 4.74257 14.5767 4.53515 13.5211C4.32773 12.4654 4.34479 11.3771 4.5852 10.3286C4.82561 9.28009 5.28386 8.29539 5.92947 7.43997L0.894208 7.41357C0.524643 8.29704 0.267616 9.22448 0.129312 10.1736C-0.2561 12.7968 0.220626 15.4356 1.54051 18.0144C2.22172 19.1955 3.10233 20.2466 4.14234 21.12C5.17282 22.0056 6.34296 22.7098 7.60394 23.2032C8.77351 23.6551 10.0044 23.9238 11.2541 24L8.24788 18.666C8.204 18.6444 8.16486 18.6216 8.12217 18.6Z" fill="#D14671"/>
<path d="M11.0656 23.8798C9.89335 23.79 8.74018 23.5289 7.64191 23.1046C6.39193 22.6151 5.23187 21.917 4.20996 21.0394C2.58411 19.6486 1.7789 18.229 1.63303 17.959C0.32856 15.4006 -0.145794 12.7846 0.233689 10.1842L0.24792 10.0942C0.0439479 12.4942 0.55032 14.8942 1.75518 17.2474C1.9046 17.5258 2.72642 18.9742 4.38428 20.3914C6.16662 21.9332 8.35696 22.9116 10.6837 23.2054L11.0656 23.8798Z" fill="url(#paint0_radial)"/>
<path d="M13.3353 23.5199L12.9262 22.8095L11.1403 19.7051C11.3063 19.7219 11.4854 19.7327 11.6905 19.7387L13.531 22.9367C17.3092 22.7519 20.2336 19.6475 24.8206 22.0967L24.255 22.3523C19.7083 20.2799 17.4681 23.2487 13.3353 23.5199Z" fill="url(#paint1_radial)"/>
<path d="M19.1449 8.28002C18.7266 7.27396 18.0991 6.37081 17.3052 5.63192C16.5113 4.89304 15.5695 4.33572 14.5438 3.99784C13.5181 3.65997 12.4326 3.54944 11.361 3.67377C10.2893 3.79811 9.2567 4.15439 8.33322 4.71842L2.55559 4.68962C2.35399 4.95002 2.1595 5.21882 1.97095 5.49842L8.01896 5.52962C8.94246 4.96488 9.97537 4.60811 11.0474 4.4836C12.1194 4.35909 13.2053 4.46975 14.2313 4.80806C15.2572 5.14637 16.1991 5.70438 16.9927 6.44411C17.7864 7.18384 18.4133 8.08792 18.8307 9.09482L21.3459 4.74482C21.3175 4.70642 21.2854 4.66442 21.2534 4.62482L19.1449 8.28002Z" fill="url(#paint2_radial)"/>
</g>
<defs>
<radialGradient id="paint0_radial" cx="0" cy="0" r="1" gradientUnits="userSpaceOnUse" gradientTransform="translate(5872.07 -1835.38) scale(1115.92 1403.79)">
<stop offset="0.18" stop-color="white"/>
<stop offset="1" stop-color="white" stop-opacity="0"/>
</radialGradient>
<radialGradient id="paint1_radial" cx="0" cy="0" r="1" gradientUnits="userSpaceOnUse" gradientTransform="translate(7677.07 -24.5466) scale(724.512 202.032)">
<stop offset="0.18" stop-color="white"/>
<stop offset="1" stop-color="white" stop-opacity="0"/>
</radialGradient>
<radialGradient id="paint2_radial" cx="0" cy="0" r="1" gradientUnits="userSpaceOnUse" gradientTransform="translate(13183 -285.768) scale(1123.36 317.182)">
<stop offset="0.18" stop-color="white"/>
<stop offset="1" stop-color="white" stop-opacity="0"/>
</radialGradient>
<clipPath id="clip0">
<rect width="95" height="24" fill="white"/>
</clipPath>
</defs>
</svg>

<svg width="95" height="24" viewBox="0 0 95 24" fill="none" xmlns="http://www.w3.org/2000/svg"><g clip-path="url(#clip0)"><path d="M37.803 17.194l.873 1.304c.037.05.058.11.062.171 0 .108-.108.155-.23.155h-1.186a.404.404 0 01-.321-.12s-.712-.636-1.488-1.32c-2.656-.203-4.405-1.848-4.405-5.466 0-3.463 2.026-5.217 4.971-5.217 2.978 0 4.973 1.754 4.973 5.217.003 3.21-1.363 4.749-3.25 5.276zM36.098 7.97c-1.871 0-3.249.947-3.249 4.006 0 3.277 1.35 4.07 3.253 4.07 1.902 0 3.239-.793 3.239-4.07-.004-3.075-1.416-4.006-3.243-4.006zm13.946 9.07c-.936.155-2.253.373-3.32.373-2.61 0-3.99-.886-3.99-3.541V8.607a.141.141 0 01.092-.149.13.13 0 01.062-.007h1.304c.107 0 .168.047.168.14v5.358c0 1.521.721 2.127 2.287 2.127.583 0 1.258-.047 1.779-.093.092-.016.154-.047.154-.155V8.592c0-.11.03-.14.153-.14h1.304c.107 0 .169.046.169.14v8.245a.183.183 0 01-.093.182.176.176 0 01-.069.02zm10.272-3.465h-6.414c-.093 0-.139.016-.139.157.062 1.956 1.366 2.391 3.253 2.391.712 0 1.49-.062 2.317-.12.062 0 .14.016.14.11v.03l-.14.947c-.03.108-.077.108-.183.14-.88.13-1.767.198-2.656.202-2.623 0-4.387-1.102-4.387-4.56 0-3.338 1.897-4.47 4.203-4.47 2.809 0 4.144 1.583 4.144 5.03 0 .098-.046.143-.138.143zM56.22 9.633c-1.505 0-2.471.84-2.471 2.562 0 .12.03.155.139.155h4.756c.108 0 .169-.015.169-.14-.045-1.74-1.06-2.577-2.593-2.577zm8.53 7.794a15.064 15.064 0 01-2.502-.233c-.118-.032-.153-.062-.153-.17v-.944a.12.12 0 01.035-.085.118.118 0 01.084-.035h.046c.414.015 1.397.093 2.21.093 1.09 0 2.394-.046 2.394-1.257 0-2.096-4.862-1.15-4.862-4.146 0-1.833 1.897-2.267 3.557-2.267.787.021 1.572.099 2.348.233.108.031.169.092.169.17l-.153.9c0 .063-.047.11-.139.11h-.03a21.337 21.337 0 00-2.195-.14c-.905 0-1.933.046-1.933 1.01 0 1.66 4.85.915 4.85 3.99.005 1.964-1.483 2.771-3.727 2.771zm10.054-.31c-.03.092-.077.12-.185.139-.523.081-1.05.13-1.58.144-1.458 0-2.102-.653-2.102-2.221V9.662c0-.108-.046-.155-.153-.155H69.74c-.107 0-.153-.062-.153-.17v-.745c0-.094.046-.14.153-.14h1.057c.092 0 .138-.046.138-.155v-2.04c0-.11.03-.156.153-.188l1.304-.139c.108 0 .169.047.169.155v2.212c0 .109.03.154.154.154h1.66c.119 0 .154.047.154.156v.746c0 .092-.03.139-.154.139h-1.66c-.108 0-.154.062-.154.17v5.098c0 .9.138 1.273 1.29 1.273h.936c.137 0 .153.062.153.155l-.136.929zm5.371.201h-3.544c-.108 0-.14-.03-.14-.156V6.93c0-.12.047-.17.14-.17h3.759c2.717 0 5.003 1.087 5.003 4.953 0 4.285-2.302 5.605-5.218 5.605zm.292-9.332h-2.18c-.118 0-.168.062-.168.155v7.734c0 .108.03.154.153.154h2.226c1.81 0 3.253-1.165 3.253-4.08 0-2.891-1.32-3.963-3.284-3.963zm11.141 9.332h-4.312c-.106 0-.137-.062-.137-.156V6.914c0-.108.046-.154.153-.154h3.929c1.504 0 3.177.62 3.177 2.562 0 1.506-.86 2.204-1.459 2.329v.092c.568.12 2.041.498 2.041 2.609 0 2.3-1.918 2.966-3.392 2.966zm-.935-9.332H88.94a.146.146 0 00-.166.103.15.15 0 00-.004.07v2.823c0 .12.03.172.153.172h1.994c.63 0 1.857-.156 1.857-1.615 0-1.398-1.09-1.553-2.102-1.553zm.64 4.374h-2.39c-.107 0-.152.031-.152.155v3.37c0 .108.045.14.153.14h2.253c1.028 0 2.18-.264 2.18-1.833.002-1.315-.873-1.832-2.044-1.832z" fill="#fff"/><path d="M26.25 21.25l-.89-.72c-2.078-1.939-1.93-4.569-1.816-5.621a19.15 19.15 0 00.055-4.005c-.038-.374-.09-.747-.161-1.112-.108-.563-.54-2.32-.979-3.16l-1.983 3.432-.482.832-.567.984a7.663 7.663 0 01-.613 3.19 7.584 7.584 0 01-1.876 2.638 7.475 7.475 0 01-2.795 1.6 7.413 7.413 0 01-3.2.271l.096.165 1.305 2.265.493.858.565.984c.313-.029.633-.068.96-.12a18.534 18.534 0 003.631-1.074 8.533 8.533 0 011.725-.5c1.449-.252 2.81-.044 4.01.6a.44.44 0 00.407.01L26.2 21.72a.28.28 0 00.15-.221.287.287 0 00-.1-.25zM8.15.662A11.827 11.827 0 004.743 2.5a12.617 12.617 0 00-2.768 3l6.048.03a7.428 7.428 0 016.212-.722 7.492 7.492 0 012.761 1.637 7.602 7.602 0 011.838 2.65l2.51-4.35a11.127 11.127 0 00-1.835-1.938C18.074 1.62 15.597.167 11.947.002c-.013-.002-1.685-.075-3.798.66zM8.122 18.6a7.527 7.527 0 01-2.334-2.149 7.63 7.63 0 01-1.253-2.93 7.671 7.671 0 01.05-3.192A7.623 7.623 0 015.93 7.44L.894 7.414a11.42 11.42 0 00-.765 2.76c-.385 2.623.092 5.262 1.412 7.84a11.665 11.665 0 002.601 3.106c1.03.886 2.201 1.59 3.462 2.083 1.17.452 2.4.72 3.65.797l-3.006-5.334-.126-.066z" fill="#D14671"/><path d="M11.066 23.88a12.054 12.054 0 01-3.424-.775 11.965 11.965 0 01-3.432-2.066c-1.626-1.39-2.431-2.81-2.577-3.08-1.304-2.558-1.779-5.174-1.4-7.775l.015-.09c-.204 2.4.302 4.8 1.507 7.153.15.279.971 1.727 2.63 3.144a11.91 11.91 0 006.299 2.814l.382.675z" fill="url(#paint0_radial)"/><path d="M13.335 23.52l-.409-.71-1.786-3.105c.166.017.345.028.55.034l1.841 3.198c3.778-.185 6.703-3.29 11.29-.84l-.566.255c-4.547-2.072-6.787.897-10.92 1.168z" fill="url(#paint1_radial)"/><path d="M19.145 8.28a7.606 7.606 0 00-1.84-2.648 7.497 7.497 0 00-2.761-1.634 7.433 7.433 0 00-6.21.72L2.555 4.69c-.202.26-.397.529-.585.808l6.048.032a7.428 7.428 0 016.212-.722 7.492 7.492 0 012.762 1.636 7.602 7.602 0 011.838 2.65l2.515-4.35a3.611 3.611 0 00-.093-.12L19.145 8.28z" fill="url(#paint2_radial)"/></g><defs><radialGradient id="paint0_radial" cx="0" cy="0" r="1" gradientUnits="userSpaceOnUse" gradientTransform="matrix(1115.92 0 0 1403.79 5872.07 -1835.38)"><stop offset=".18" stop-color="#fff"/><stop offset="1" stop-color="#fff" stop-opacity="0"/></radialGradient><radialGradient id="paint1_radial" cx="0" cy="0" r="1" gradientUnits="userSpaceOnUse" gradientTransform="matrix(724.512 0 0 202.032 7677.07 -24.547)"><stop offset=".18" stop-color="#fff"/><stop offset="1" stop-color="#fff" stop-opacity="0"/></radialGradient><radialGradient id="paint2_radial" cx="0" cy="0" r="1" gradientUnits="userSpaceOnUse" gradientTransform="matrix(1123.36 0 0 317.182 13183 -285.768)"><stop offset=".18" stop-color="#fff"/><stop offset="1" stop-color="#fff" stop-opacity="0"/></radialGradient><clipPath id="clip0"><rect width="95" height="24" fill="#fff"/></clipPath></defs></svg>
